X:1
T:Paragon Rag
T:PARAGON  RAG
T:By SCOTT JOPLIN, Composer of “Maple Leaf Rag,” “Sugar Cane Rag,” “Wall Street Rag”  and  “Pineapple Rag.”
T:  NOTE. Do not play this piece fast. It is never right to play Ragtime fast. Composer.
T:Respectfully Dedicated to the C.V.B.A.
T:Public Domain
T:Public Domain
T:Public Domain
T:Public Domain
T:Public Domain
C:Scott Joplin
Z:Public Domain
%%score { ( 1 3 ) | ( 2 4 ) }
L:1/8
Q:1/4=69
M:2/4
K:G
V:1 treble nm="Piano" snm="Pno."
V:3 treble 
V:2 bass 
V:4 bass 
V:1
!mf!"^Slow March Time" g>e d/B/G | G>E D/B,/G, | D/F/A (F/=F/E/_E/ | D)!>![Dd] !>![Ee]!>![Ff] |: %4
!mf! !>![GBg]>e d/B/G | [GBg]>e d/B/G/=F/ | E/[Gc]_E/ (G/A/^A/B/-) | (B/d/g/b/) (ba) | %8
 [Bg]>e d/B/G | [GBg]>e d/B/G/E/ | (F/A/d/f/-) f/a/e | [Fd]!>![Dd] !>![Ee]!>![Ff] | %12
 !>![GBg]>e d/B/G | [GBg]>e d/B/G/=F/ | E/[Gc]_E/ (G/A/^A/B/-) | [DGB]/D/G/B/ [DGd][DGB] | %16
 E/[Gc]_E/ (G/A/^A/B/-) | [DGB]/D/G/B/ [G^Ae][GBd] | [GBd]/[DGB][^CGB]/- (B/G/)=A |1 %19
 [B,G]!>![Dd] !>![Ee]!>![Ff] :|2 [B,G]!>![Gg] !>![Ff]!>![=F=f] |:!f! (e/G/c/e/-) [EGe]2- | %22
 [EGe][Ff] [Gg][Ee] | z [^ae']/[bd']/- [bd']/e/[gb] | [^Ae]/[Bd]E/ [GB][^EBd] | %25
 ([DFcd]/F/=A/[DFcd]/-) [DFcd]2- | ([cd]/c/A/B/) [DFc][EG^c] | z [^ae']/[bd']/- [bd']/e/[gb] | %28
 [^Ae]/[Bd]E/ [GB][=FB] | (B/=A/E/G/-) [EG]2- | [EG][EG] A/^AB/- | z [^ae']/[bd']/- [bd']/e/[gb] | %32
 [^Ae]/[Bd]E/ [GB]/d[^ce]/ | [F=cf]/[^E^e]/[Fcf]/[=Ac=a]/- [Aca]2- | %34
 ([Aca]/[Ac]/[Bd]/[ce]/-) (e/d/E/F/) | [B,G]([^Ae]/[Bd]/-) ([Bd]/[DB]/[C=A]) |1 %36
 [B,G]!>![Gg] !>![Ff]!>![=F=f] :|2 [B,G]!>![Dd] !>![Ee]!>![Ff] ||!mf! !>![GBg]>e d/B/G | %39
 [GBg]>e d/B/G/=F/ | E/[Gc]_E/ (G/A/^A/B/-) | (B/d/g/b/) (ba) | [Bg]>e d/B/G | [GBg]>e d/B/G/E/ | %44
 (F/A/d/f/-) f/a/e | [Fd]!>![Dd] !>![Ee]!>![Ff] | !>![GBg]>e d/B/G | [GBg]>e d/B/G/=F/ | %48
 E/[Gc]_E/ (G/A/^A/B/-) | ([DGB]/D/G/B/) [DGd][DGB] | E/[Gc]_E/ (G/A/^A/B/-) | %51
 ([DGB]/D/G/B/) [G^Ae][GBd] | [GBd]/[DGB][^CGB]/- (B/G/A) | [B,G]2 [GBdg] || %54
[K:C][M:2/4]"^Trio." (D/^D/) |:!p! E>G F/cF/ | E>G F/cF/ | E/G/e/c/ A/G/E/C/ | %58
 (B,/^A,/B,/G/-) G/F/D | B,>G F/DB,/ | C>D E/AE/ |!<(! ^F/G/A/d/ c/B/!<)!c/A/ | %62
 (A/!>(!G/=F/D/-) (D/^C/!>)!D/^D/) |!p! E>G F/cF/ | E>G F/cF/ |!<(! (E/F/^F/G/) (A/_B/!<)!A/E/) | %66
 (F/!<(!E/F/A/-) (A/G/!<)!F) | (^F/A/c/^d/) (F/A/c/d/) | (e/c/^F/G/) (e/c/F/G/) | %69
 (=D/E/F/G/-) (G/A/[FB]) |1 [Ec]A/G/- (G/G/D/^D/) :|2 [Ec](G/^F/)!<(! (G/^G/A/!<)!^A/) |: %72
!f! (B/^A/B/c/ d/e/f/g/) | a/B/d/[Bfg]/- ([Bfg]/f/d/B/) | (c/B/c/d/ e/f/^f/g/) | %75
 a/c/e/[ceg]/- [ceg]/e/c | (^c/^B/c/d/ e/^d/e/^c/) | (d/e/d/^c/ d/e/f/a/) | (g/f/d/G/- G/F/G/F/) | %79
 E/^DE/- (E/G/A/^A/) | (B/^A/B/c/ d/e/f/g/) | a/B/d/[Bfg]/- ([Bfg]/f/d/B/) | (c/B/c/d/ e/f/^f/g/) | %83
 a/c/e/[ceg]/- [ceg]/e/c | (c/_d/_e/c/ _B/=A/B/=B/) | (c/_d/c/B/ c/=d/e/g/) | %86
 f/e/d/G/- G/[Ge]/[Fd] |1 [Ec](G/^F/) (G/^G/A/^A/) :|2 [Ec]2 !^![cegc'] z!fine! |] %89
V:2
 G>E D/B,/G, | G,>E, D,/B,,/G,, | D,/F,/A, (F,/=F,/E,/_E,/ | D,)!>!D, !>!C,!>!A,, |: %4
 !>!G,,[D,G,B,] D,,[D,G,B,] | G,,[D,G,B,] B,,[D,G,B,] | C,[E,G,C] C,[_E,G,C] | %7
 G,,[D,G,B,] [D,,D,][D,F,C] | [G,,G,][D,G,B,] D,,[D,G,B,] | [G,,G,][D,G,B,] [B,,B,][_B,,_B,] | %10
 [A,,A,][F,A,D] A,,[G,A,^C] | [D,F,A,D]!>!D, !>!=C,!>!A,, | !>!G,,[D,G,B,] D,,[D,G,B,] | %13
 G,,[D,G,B,] B,,[D,G,B,] | C,[E,G,C] C,[_E,G,C] | G,,[D,G,B,] B,,[D,G,B,] | C,[E,G,C] ^C,[G,^A,] | %17
 D,[G,B,] ^C,D, | [D,,D,][^D,,^D,] [E,,E,][=D,,=D,] |1 [G,,G,]!>!D, !>!C,!>!A,, :|2 %20
 [G,,G,]!>![G,,G,] !>![A,,A,]!>![B,,B,] |: [C,C]G, [C,C]/[G,,G,]/[A,,A,]/[B,,B,]/ | %22
 [C,C][D,D] [E,E][C,C] | [B,,B,][D,G,B,] [D,,D,][D,G,B,] | [G,,G,][D,G,B,] [D,,D,][^G,,^G,] | %25
 [A,,A,][D,F,C] [F,,F,]/[=F,,=F,]/[E,,E,]/[_E,,_E,]/ | [D,,D,][C,C] [A,,A,][^A,,^A,] | %27
 [B,,B,][D,G,B,] [D,,D,][D,G,B,] | [G,,G,][D,G,B,] D,[G,B,] | C,[E,G,C] (C,/G,/C/D/ | %30
 E)C C,[_E,G,C] | G,,[D,G,B,] [D,,D,][D,G,B,] | [G,,G,][D,G,B,] [B,,B,][_B,,_B,] | %33
 [A,,A,][D,D] [C,C]/[=B,,=B,]/[A,,A,]/[G,,G,]/ | [F,,F,][D,F,C] [D,,D,][D,F,] | %35
 [G,,G,]2 [D,,D,][D,F,] |1 [G,,G,]!>![G,,G,] !>![A,,A,]!>![B,,B,] :|2 [G,,G,]!>!D, !>!C,!>!A,, || %38
 !>!G,,[D,G,B,] D,,[D,G,B,] | G,,[D,G,B,] B,,[D,G,B,] | C,[E,G,C] C,[_E,G,C] | %41
 G,,[D,G,B,] [D,,D,][D,F,C] | [G,,G,][D,G,B,] D,,[D,G,B,] | [G,,G,][D,G,B,] [B,,B,][_B,,_B,] | %44
 [A,,A,][F,A,D] A,,[G,A,^C] | [D,F,A,D]!>!D, !>!C,!>!A,, | !>!G,,[D,G,B,] D,,[D,G,B,] | %47
 G,,[D,G,B,] B,,[D,G,B,] | C,[E,G,C] C,[_E,G,C] | G,,[D,G,B,] B,,[D,G,B,] | C,[E,G,C] ^C,[G,^A,] | %51
 D,[G,B,] ^C,D, | [D,,D,][^D,,^D,] [E,,E,][=D,,=D,] | [G,,G,]D,G,, ||[K:C][M:2/4] [B,,=F,G,] |: %55
 [C,E,G,][C,E,G,] [C,F,A,][C,F,_A,] | [C,E,G,][C,E,G,] [C,F,A,][C,F,_A,] | %57
 [C,E,G,][C,E,G,] [C,E,G,][C,E,G,] | [D,F,G,][D,F,G,] [B,,F,G,][B,,F,G,] | %59
 [G,,D,F,][G,,D,F,] [^G,,D,F,][G,,D,F,] | [A,,C,E,][A,,C,E,] [C,E,A,][E,A,C] | %61
 [D,A,C][D,^F,C] [D,F,A,][D,F,A,] | [D,=F,G,B,][D,F,G,B,] [B,,F,G,][B,,F,G,] | %63
 [C,E,G,][C,E,G,] [C,F,A,][C,F,_A,] | [C,E,G,][C,E,G,] [C,F,=A,][C,F,_A,] | %65
 [C,E,G,][C,E,G,] [^C,E,G,][C,G,A,] | [D,F,A,][D,F,A,] [F,A,D][F,A,D] | %67
 (^D/C/A,/^F,/) (D/C/A,/F,/) | (G,/C/^D/E/) (G,/C/D/E/) | G,[B,D] G,,[G,D] |1 %70
 [C,G,C]A,/G,/- G,[B,,F,G,] :|2 [C,G,C] z E,^C, |: D,[G,B,F] G,,[G,B,F] | %73
 D,[G,B,F] [G,,G,][F,,F,] | [E,,E,][G,CE] G,,[G,CE] | C,[G,CE] _B,,[G,CE] | %76
 A,,[G,A,^C] G,,[E,A,C] | F,,[F,A,D] D,[F,A,D] | B,,[F,G,B,] G,,[F,G,B,] | %79
 [C,G,C]/[C,^F,C][C,G,C]/- [C,G,C]^C, | D,[G,B,F] G,,[G,B,F] | D,[G,B,F] [G,,G,][F,,F,] | %82
 [E,,E,][G,CE] G,,[G,CE] | C,[G,CE] E,[G,CE] | _E,[_A,C] E,[G,_D] | _E,[_A,C] =E,[G,C] | %86
 D,[G,B,F] G,,[G,B,] |1 [C,G,C] z E,^C, :|2 [C,G,C][G,,G,]!^![C,,C,] z |] %89
V:3
 x4 | x4 | x4 | x4 |: x4 | x4 | E>_E- E>[DG]- | [DG]2 [df][cf] | x4 | x4 | F>A- AG | x4 | x4 | x4 | %14
 E>_E- E>[DG]- | x4 | E>_E- E>[DG]- | x4 | x2 [CG][=CF] |1 x4 :|2 x4 |: E>[EG]- x2 | x4 | [D-Gd]4 | %24
 D3 D | x4 | [DF][DF] x2 | [D-Gd]4 | D3 =F | E>E- x2 | x2 _E>[DG]- | [D-GB]4 | D2- D/GG/ | x4 | %34
 x2 cC | x4 |1 x4 :|2 x4 || x4 | x4 | E>_E- E>[DG]- | [DG]2 [df][cf] | x4 | x4 | F>A- AG | x4 | %46
 x4 | x4 | E>_E- E>[DG]- | x4 | E>_E- E>[DG]- | x4 | x2 [CG][=CF] | x3 ||[K:C][M:2/4] x |: x4 | %56
 x4 | x4 | x4 | x4 | x4 | x4 | x4 | x4 | x4 | x4 | x4 | x4 | x4 | x4 |1 x4 :|2 x4 |: x4 | x4 | x4 | %75
 x4 | x4 | x4 | x4 | x4 | x4 | x4 | x4 | x4 | (_A2 G2) | (_A2 G2) | x4 |1 x4 :|2 x4 |] %89
V:4
 x4 | x4 | x4 | x4 |: x4 | x4 | x4 | x4 | x4 | x4 | x4 | x4 | x4 | x4 | x4 | x4 | x4 | x4 | x4 |1 %19
 x4 :|2 x4 |: x4 | x4 | x4 | x4 | x4 | x4 | x4 | x4 | x2 C,2- | C,2 C, x | x4 | x4 | x4 | x4 | %35
 x4 |1 x4 :|2 x4 || x4 | x4 | x4 | x4 | x4 | x4 | x4 | x4 | x4 | x4 | x4 | x4 | x4 | x4 | x4 | %53
 x3 ||[K:C][M:2/4] x |: x4 | x4 | x4 | x4 | x4 | x4 | x4 | x4 | x4 | x4 | x4 | x4 | x4 | x4 | x4 |1 %70
 x4 :|2 x4 |: x4 | x4 | x4 | x4 | x4 | x4 | x4 | x4 | x4 | x4 | x4 | x4 | x4 | x4 | x4 |1 x4 :|2 %88
 x4 |] %89

